ui/public/images/landing-cards/city-hall.svg

<svg width="81" height="80" viewBox="0 0 81 80" fill="none" xmlns="http://www.w3.org/2000/svg">
<path fill-rule="evenodd" clip-rule="evenodd" d="M57.334 78C56.7826 78 56.334 77.5514 56.334 77C56.334 76.4486 56.7826 76 57.334 76C57.8854 76 58.334 76.4486 58.334 77C58.334 77.5514 57.8854 78 57.334 78Z" fill="#CACAFB"/>
<path fill-rule="evenodd" clip-rule="evenodd" d="M61.334 6C60.7826 6 60.334 5.5514 60.334 5C60.334 4.44855 60.7826 4 61.334 4C61.8854 4 62.334 4.44855 62.334 5C62.334 5.5514 61.8854 6 61.334 6Z" fill="#CACAFB"/>
<path fill-rule="evenodd" clip-rule="evenodd" d="M27.334 78C26.7826 78 26.334 77.5514 26.334 77C26.334 76.4486 26.7826 76 27.334 76C27.8854 76 28.334 76.4486 28.334 77C28.334 77.5514 27.8854 78 27.334 78Z" fill="#CACAFB"/>
<path d="M45.3273 9.88338C45.2695 9.38604 44.8468 9 44.334 9C43.7817 9 43.334 9.44772 43.334 10V14L43.3407 14.1166C43.3985 14.614 43.8211 15 44.334 15C44.8863 15 45.334 14.5523 45.334 14V10L45.3273 9.88338Z" fill="#E1000F"/>
<path d="M20.334 35C20.334 34.4477 19.8863 34 19.334 34H13.334L13.2174 34.0067C12.72 34.0645 12.334 34.4872 12.334 35C12.334 35.5523 12.7817 36 13.334 36H19.334L19.4506 35.9933C19.9479 35.9355 20.334 35.5128 20.334 35Z" fill="#E1000F"/>
<path fill-rule="evenodd" clip-rule="evenodd" d="M40.334 34C38.6771 34 37.334 35.3431 37.334 37C37.334 38.6569 38.6771 40 40.334 40C41.9908 40 43.334 38.6569 43.334 37C43.334 35.3431 41.9908 34 40.334 34ZM40.334 36C40.8863 36 41.334 36.4477 41.334 37C41.334 37.5523 40.8863 38 40.334 38C39.7817 38 39.334 37.5523 39.334 37C39.334 36.4477 39.7817 36 40.334 36Z" fill="#E1000F"/>
<path d="M19.334 38C19.8863 38 20.334 38.4477 20.334 39C20.334 39.5128 19.9479 39.9355 19.4506 39.9933L19.334 40H13.334C12.7817 40 12.334 39.5523 12.334 39C12.334 38.4872 12.72 38.0645 13.2174 38.0067L13.334 38H19.334Z" fill="#E1000F"/>
<path d="M32.334 35C32.334 34.4477 31.8863 34 31.334 34H25.334L25.2174 34.0067C24.72 34.0645 24.334 34.4872 24.334 35C24.334 35.5523 24.7817 36 25.334 36H31.334L31.4506 35.9933C31.9479 35.9355 32.334 35.5128 32.334 35Z" fill="#E1000F"/>
<path d="M31.334 38C31.8863 38 32.334 38.4477 32.334 39C32.334 39.5128 31.9479 39.9355 31.4506 39.9933L31.334 40H25.334C24.7817 40 24.334 39.5523 24.334 39C24.334 38.4872 24.72 38.0645 25.2174 38.0067L25.334 38H31.334Z" fill="#E1000F"/>
<path d="M56.334 35C56.334 34.4477 55.8863 34 55.334 34H49.334L49.2174 34.0067C48.72 34.0645 48.334 34.4872 48.334 35C48.334 35.5523 48.7817 36 49.334 36H55.334L55.4506 35.9933C55.9479 35.9355 56.334 35.5128 56.334 35Z" fill="#E1000F"/>
<path d="M55.334 38C55.8863 38 56.334 38.4477 56.334 39C56.334 39.5128 55.9479 39.9355 55.4506 39.9933L55.334 40H49.334C48.7817 40 48.334 39.5523 48.334 39C48.334 38.4872 48.72 38.0645 49.2174 38.0067L49.334 38H55.334Z" fill="#E1000F"/>
<path d="M68.334 35C68.334 34.4477 67.8863 34 67.334 34H61.334L61.2174 34.0067C60.72 34.0645 60.334 34.4872 60.334 35C60.334 35.5523 60.7817 36 61.334 36H67.334L67.4506 35.9933C67.9479 35.9355 68.334 35.5128 68.334 35Z" fill="#E1000F"/>
<path d="M67.334 38C67.8863 38 68.334 38.4477 68.334 39C68.334 39.5128 67.9479 39.9355 67.4506 39.9933L67.334 40H61.334C60.7817 40 60.334 39.5523 60.334 39C60.334 38.4872 60.72 38.0645 61.2174 38.0067L61.334 38H67.334Z" fill="#E1000F"/>
<path d="M41.3273 9.88338C41.2695 9.38604 40.8468 9 40.334 9C39.7817 9 39.334 9.44772 39.334 10V14L39.3407 14.1166C39.3985 14.614 39.8211 15 40.334 15C40.8863 15 41.334 14.5523 41.334 14V10L41.3273 9.88338Z" fill="#000091"/>
<path d="M41.3273 16.8834C41.2695 16.386 40.8468 16 40.334 16C39.7817 16 39.334 16.4477 39.334 17V20H17.334L17.2174 20.0067C16.72 20.0645 16.334 20.4872 16.334 21V26H3.33398L3.21736 26.0067C2.72002 26.0645 2.33398 26.4872 2.33398 27C2.33398 27.5523 2.7817 28 3.33398 28H77.334L77.4506 27.9933C77.9479 27.9355 78.334 27.5128 78.334 27C78.334 26.4477 77.8863 26 77.334 26H64.334V21L64.3273 20.8834C64.2695 20.386 63.8468 20 63.334 20C62.7817 20 62.334 20.4477 62.334 21V26H18.334V22H53.334L53.4506 21.9933C53.9479 21.9355 54.334 21.5128 54.334 21C54.334 20.4477 53.8863 20 53.334 20H41.334V17L41.3273 16.8834Z" fill="#000091"/>
<path d="M25.334 44C25.8468 44 26.2695 44.386 26.3273 44.8834L26.334 45V65C26.334 65.5523 25.8863 66 25.334 66C24.8211 66 24.3985 65.614 24.3407 65.1166L24.334 65V45C24.334 44.4477 24.7817 44 25.334 44Z" fill="#000091"/>
<path d="M22.3273 48.8834C22.2695 48.386 21.8468 48 21.334 48C20.7817 48 20.334 48.4477 20.334 49V68H12.334V49L12.3273 48.8834C12.2695 48.386 11.8468 48 11.334 48C10.7817 48 10.334 48.4477 10.334 49V68H7.33398L7.21736 68.0067C6.72002 68.0645 6.33398 68.4872 6.33398 69C6.33398 69.5523 6.7817 70 7.33398 70H21.334C21.403 70 21.4704 69.993 21.5355 69.9797C21.9912 69.8864 22.334 69.4832 22.334 69V49L22.3273 48.8834Z" fill="#000091"/>
<path d="M15.334 44C15.8468 44 16.2695 44.386 16.3273 44.8834L16.334 45V61C16.334 61.5523 15.8863 62 15.334 62C14.8211 62 14.3985 61.614 14.3407 61.1166L14.334 61V45C14.334 44.4477 14.7817 44 15.334 44Z" fill="#000091"/>
<path d="M59.334 20C59.8863 20 60.334 20.4477 60.334 21C60.334 21.5128 59.9479 21.9355 59.4506 21.9933L59.334 22H57.334C56.7817 22 56.334 21.5523 56.334 21C56.334 20.4872 56.72 20.0645 57.2174 20.0067L57.334 20H59.334Z" fill="#000091"/>
<path d="M7.33398 30C7.84682 30 8.26949 30.386 8.32726 30.8834L8.33398 31V65C8.33398 65.5523 7.88627 66 7.33398 66C6.82115 66 6.39848 65.614 6.34071 65.1166L6.33398 65V31C6.33398 30.4477 6.7817 30 7.33398 30Z" fill="#000091"/>
<path fill-rule="evenodd" clip-rule="evenodd" d="M48.3273 48.8834C48.2695 48.386 47.8468 48 47.334 48H33.334L33.2174 48.0067C32.72 48.0645 32.334 48.4872 32.334 49V64H29.334L29.2174 64.0067C28.72 64.0645 28.334 64.4872 28.334 65C28.334 65.5523 28.7817 66 29.334 66H51.334L51.4506 65.9933C51.9479 65.9355 52.334 65.5128 52.334 65C52.334 64.4477 51.8863 64 51.334 64H48.334V49L48.3273 48.8834ZM39.334 64H34.334V49.999H46.334V64H41.334V55L41.3273 54.8834C41.2695 54.386 40.8468 54 40.334 54C39.7817 54 39.334 54.4477 39.334 55V64Z" fill="#000091"/>
<path d="M45.334 44C45.8863 44 46.334 44.4477 46.334 45C46.334 45.5128 45.9479 45.9355 45.4506 45.9933L45.334 46H35.334C34.7817 46 34.334 45.5523 34.334 45C34.334 44.4872 34.72 44.0645 35.2174 44.0067L35.334 44H45.334Z" fill="#000091"/>
<path d="M55.334 44C54.8211 44 54.3985 44.386 54.3407 44.8834L54.334 45V65C54.334 65.5523 54.7817 66 55.334 66C55.8468 66 56.2695 65.614 56.3273 65.1166L56.334 65V45C56.334 44.4477 55.8863 44 55.334 44Z" fill="#000091"/>
<path d="M58.3407 48.8834C58.3985 48.386 58.8211 48 59.334 48C59.8863 48 60.334 48.4477 60.334 49V61L60.3273 61.1166C60.2695 61.614 59.8468 62 59.334 62C58.7817 62 58.334 61.5523 58.334 61V49L58.3407 48.8834Z" fill="#000091"/>
<path d="M65.334 44C64.8211 44 64.3985 44.386 64.3407 44.8834L64.334 45V65C64.334 65.5523 64.7817 66 65.334 66C65.8468 66 66.2695 65.614 66.3273 65.1166L66.334 65V45C66.334 44.4477 65.8863 44 65.334 44Z" fill="#000091"/>
<path d="M68.3407 48.8834C68.3985 48.386 68.8212 48 69.334 48C69.8863 48 70.334 48.4477 70.334 49V69C70.334 69.0394 70.3317 69.0784 70.3273 69.1166C70.2739 69.5757 69.9097 69.9399 69.4507 69.9933C69.4124 69.9977 69.3735 70 69.334 70H25.334C24.7817 70 24.334 69.5523 24.334 69C24.334 68.4872 24.72 68.0645 25.2174 68.0067L25.334 68H68.334V49L68.3407 48.8834Z" fill="#000091"/>
<path d="M73.334 30C73.8468 30 74.2695 30.386 74.3273 30.8834L74.334 31V69C74.334 69.5523 73.8863 70 73.334 70C72.8212 70 72.3985 69.614 72.3407 69.1166L72.334 69V31C72.334 30.4477 72.7817 30 73.334 30Z" fill="#000091"/>
</svg>

<svg width="81" height="80" fill="none" xmlns="http://www.w3.org/2000/svg"><path fill-rule="evenodd" clip-rule="evenodd" d="M57.334 78a1.001 1.001 0 0 1 0-2 1.001 1.001 0 0 1 0 2zM61.334 6a1.001 1.001 0 0 1 0-2 1.001 1.001 0 0 1 0 2zM27.334 78a1.001 1.001 0 0 1 0-2 1.001 1.001 0 0 1 0 2z" fill="#CACAFB"/><path d="M45.327 9.883a1 1 0 0 0-1.993.117v4l.007.117A1 1 0 0 0 45.334 14v-4l-.007-.117zM20.334 35a1 1 0 0 0-1-1h-6l-.117.007A1 1 0 0 0 13.334 36h6l.117-.007a1 1 0 0 0 .883-.993z" fill="#E1000F"/><path fill-rule="evenodd" clip-rule="evenodd" d="M40.334 34a3 3 0 1 0 0 6 3 3 0 0 0 0-6zm0 2a1 1 0 1 1 0 2 1 1 0 0 1 0-2z" fill="#E1000F"/><path d="M19.334 38a1 1 0 0 1 .117 1.993l-.117.007h-6a1 1 0 0 1-.117-1.993l.117-.007h6zM32.334 35a1 1 0 0 0-1-1h-6l-.117.007A1 1 0 0 0 25.334 36h6l.117-.007a1 1 0 0 0 .883-.993zM31.334 38a1 1 0 0 1 .117 1.993l-.117.007h-6a1 1 0 0 1-.117-1.993l.117-.007h6zM56.334 35a1 1 0 0 0-1-1h-6l-.117.007A1 1 0 0 0 49.334 36h6l.117-.007a1 1 0 0 0 .883-.993zM55.334 38a1 1 0 0 1 .117 1.993l-.117.007h-6a1 1 0 0 1-.117-1.993l.117-.007h6zM68.334 35a1 1 0 0 0-1-1h-6l-.117.007A1 1 0 0 0 61.334 36h6l.117-.007a1 1 0 0 0 .883-.993zM67.334 38a1 1 0 0 1 .117 1.993l-.117.007h-6a1 1 0 0 1-.117-1.993l.117-.007h6z" fill="#E1000F"/><path d="M41.327 9.883a1 1 0 0 0-1.993.117v4l.007.117A1 1 0 0 0 41.334 14v-4l-.007-.117zM41.327 16.883a1 1 0 0 0-1.993.117v3h-22l-.117.007a1 1 0 0 0-.883.993v5h-13l-.117.007A1 1 0 0 0 3.334 28h74l.117-.007A1 1 0 0 0 77.334 26h-13v-5l-.007-.117a1 1 0 0 0-1.993.117v5h-44v-4h35l.117-.007A1 1 0 0 0 53.334 20h-12v-3l-.007-.117zM25.334 44a1 1 0 0 1 .993.883l.007.117v20a1 1 0 0 1-1.993.117L24.334 65V45a1 1 0 0 1 1-1zM22.327 48.883a1 1 0 0 0-1.993.117v19h-8V49l-.007-.117a1 1 0 0 0-1.993.117v19h-3l-.117.007A1 1 0 0 0 7.334 70h14a1 1 0 0 0 1-1V49l-.007-.117z" fill="#000091"/><path d="M15.334 44a1 1 0 0 1 .993.883l.007.117v16a1 1 0 0 1-1.993.117L14.334 61V45a1 1 0 0 1 1-1zM59.334 20a1 1 0 0 1 .117 1.993l-.117.007h-2a1 1 0 0 1-.117-1.993l.117-.007h2zM7.334 30a1 1 0 0 1 .993.883l.007.117v34a1 1 0 0 1-1.993.117L6.334 65V31a1 1 0 0 1 1-1z" fill="#000091"/><path fill-rule="evenodd" clip-rule="evenodd" d="M48.327 48.883a1 1 0 0 0-.993-.883h-14l-.117.007a1 1 0 0 0-.883.993v15h-3l-.117.007A1 1 0 0 0 29.334 66h22l.117-.007A1 1 0 0 0 51.334 64h-3V49l-.007-.117zM39.334 64h-5V49.999h12V64h-5v-9l-.007-.117a1 1 0 0 0-1.993.117v9z" fill="#000091"/><path d="M45.334 44a1 1 0 0 1 .117 1.993l-.117.007h-10a1 1 0 0 1-.117-1.993l.117-.007h10zM55.334 44a1 1 0 0 0-.993.883l-.007.117v20a1 1 0 0 0 1.993.117l.007-.117V45a1 1 0 0 0-1-1zM58.34 48.883a1 1 0 0 1 1.994.117v12l-.007.117A1 1 0 0 1 58.334 61V49l.007-.117zM65.334 44a1 1 0 0 0-.993.883l-.007.117v20a1 1 0 0 0 1.993.117l.007-.117V45a1 1 0 0 0-1-1z" fill="#000091"/><path d="M68.34 48.883a1 1 0 0 1 1.994.117v20a1 1 0 0 1-1 1h-44a1 1 0 0 1-.117-1.993l.117-.007h43V49l.007-.117zM73.334 30a1 1 0 0 1 .993.883l.007.117v38a1 1 0 0 1-1.993.117L72.334 69V31a1 1 0 0 1 1-1z" fill="#000091"/></svg>
